assets/img/join-spiral-arrow.svg

<svg width="177" height="198" viewBox="0 0 177 198" fill="none" xmlns="http://www.w3.org/2000/svg">
<g clip-path="url(#clip0_1_228)">
<path d="M98.2204 176.492L97.2553 178.008L99.0527 178.029C99.5228 178.034 99.8343 178.076 100.101 178.112C100.116 178.114 100.132 178.116 100.148 178.119C100.388 178.152 100.731 178.199 101.099 178.13L101.207 178.11L101.308 178.067C127.436 166.921 146.645 148.652 156.61 121.896C159.178 115.054 159.897 107.705 158.998 100.295C157.193 84.262 145.57 71.794 129.686 68.6876C121.529 67.0454 113.311 66.8617 105.375 70.4424L104.949 70.6345L104.823 71.0845C104.575 71.9719 104.336 72.8537 104.099 73.7271C103.336 76.5398 102.596 79.2667 101.648 81.8243C99.6451 87.1481 96.1839 91.171 90.7472 93.1843L90.7364 93.1883L90.7258 93.1925C86.6679 94.8021 83.325 94.1315 81.9154 92.2939C79.8643 89.6202 80.2455 86.4835 82.1378 84.0065L82.139 84.0048C85.0125 80.2273 88.3769 76.7621 91.8566 73.5543C93.6324 71.941 95.78 70.6346 97.9591 69.309C98.4717 68.9972 98.986 68.6843 99.4977 68.3661L99.9783 68.0672L99.9695 67.5013C99.8469 59.6851 96.3348 53.5773 90.5076 49.9575C84.7106 46.3564 76.7377 45.2847 67.7576 47.2435L67.2398 47.3565L67.0426 47.8483C66.9073 48.1856 66.7721 48.5249 66.6365 48.8652C65.9583 50.5677 65.2702 52.2952 64.5045 53.924C60.9527 61.0183 55.5414 65.9638 47.6776 67.5548C44.6259 68.1659 41.8434 68.0277 39.9556 65.4416C38.6458 63.6113 38.8785 60.4849 41.3325 57.3006C45.3647 52.2316 50.8431 48.9762 56.7642 46.2364C58.8871 45.3328 60.9824 44.4415 63.0558 43.6796L63.6969 43.444L63.7107 42.7611C63.9483 30.9431 59.3691 20.1617 51.9393 13.1359C44.8432 6.42579 35.147 3.15186 24.6646 5.70956C24.7082 5.46078 24.7497 5.23345 24.7946 5.0208C24.9293 4.38373 25.0603 4.08001 25.182 3.9354C25.407 3.70495 25.7921 3.49007 26.3311 3.32124C26.8613 3.15515 27.4588 3.05886 28.0139 3.01216C39.2267 2.45443 49.027 5.11014 56.1771 13.9885L56.1771 13.9886L56.1821 13.9947C61.6679 20.6968 64.9438 28.4043 66.6714 36.9832C66.6717 36.9848 66.672 36.9864 66.6723 36.988L66.6744 36.9992C66.9004 38.1792 67.1361 39.4094 67.4989 40.6635C67.5345 40.89 67.6337 41.0586 67.6941 41.1478C67.7821 41.2777 67.8879 41.384 67.9527 41.4474C68.0126 41.506 68.0848 41.5728 68.1541 41.6369C68.1677 41.6494 68.1811 41.6619 68.1943 41.6741C68.2807 41.7542 68.3767 41.8439 68.4849 41.9499L68.7661 42.2251L69.1595 42.2349C69.5679 42.2451 69.9983 42.2751 70.4749 42.3083C70.6661 42.3217 70.8647 42.3355 71.0723 42.3488C71.7731 42.3937 72.5407 42.429 73.3291 42.3952C82.1855 42.2231 88.5476 43.6075 93.4103 47.0366C98.2767 50.4684 101.798 56.0584 104.726 64.6438L105.005 65.463L105.856 65.304C106.359 65.2101 106.902 65.117 107.468 65.0201C108.675 64.8135 109.985 64.5894 111.217 64.3018C121.557 62.3314 131.45 63.4204 140.995 68.0813L140.997 68.0824C156.51 75.6128 165.123 90.8479 163.897 108.559L163.897 108.561C163.241 118.235 160.32 127.223 155.612 135.733C144.091 156.35 127.775 171.55 105.271 179.893L105.24 179.904L105.21 179.917C104.68 180.154 104.118 180.359 103.516 180.579L103.499 180.585C102.914 180.798 102.289 181.025 101.689 181.294L101.585 181.34L101.494 181.409C101.296 181.558 101.145 181.749 101.018 181.922C100.882 182.105 100.703 182.366 100.459 182.722L99.7401 183.77L100.927 184.222C105.029 185.786 109.073 186.069 112.936 186.34C113.285 186.365 113.633 186.389 113.98 186.414C116.552 186.679 119.211 186.85 121.934 187.025C123.119 187.101 124.316 187.177 125.524 187.263C125.164 188.098 124.707 188.671 124.203 189.084C123.484 189.673 122.585 190.01 121.507 190.233C120.859 190.334 120.226 190.446 119.607 190.555C117.509 190.924 115.559 191.268 113.653 191.106C106.559 190.409 99.3771 189.566 92.2747 188.209C89.5921 187.653 88.336 186.672 87.9285 185.674C87.5277 184.693 87.7623 183.225 89.2414 181.217C95.9104 172.332 102.711 163.463 109.515 154.589C110.305 153.585 111.196 152.75 112.311 151.706C112.42 151.603 112.532 151.498 112.647 151.391C113.032 152.281 113.057 152.986 112.941 153.578C112.768 154.459 112.27 155.229 111.66 156.173L111.658 156.176C107.028 162.716 102.793 169.307 98.2204 176.492ZM42.748 62.1417L41.8354 63.649L43.5975 63.6596C48.3765 63.6882 52.5031 62.4135 55.6454 60.0242C58.7939 57.6302 60.8918 54.1634 61.6768 49.9322L62.0326 48.0146L60.2679 48.8449C60.0025 48.9698 59.7371 49.0942 59.4718 49.2187C53.2279 52.1473 47.0427 55.0483 42.748 62.1417ZM84.1961 88.4967L83.7078 89.9576L85.2409 89.809C89.4049 89.4056 92.7431 87.9621 95.0758 85.4637C97.4076 82.9664 98.6297 79.5277 98.7805 75.3361L98.8484 73.4474L97.2487 74.4537C91.7094 77.9381 86.5633 81.4146 84.1961 88.4967Z" fill="#2F5B0C" stroke="#FFBF2D" stroke-width="2"/>
</g>
<defs>
<clipPath id="clip0_1_228">
<rect width="154" height="178" fill="white" transform="translate(24.2681 0.620117) rotate(7.71998)"/>
</clipPath>
</defs>
</svg>

<svg xmlns="http://www.w3.org/2000/svg" width="177" height="198" fill="none" xmlns:v="https://vecta.io/nano"><g clip-path="url(#A)"><path d="M98.22 176.492l-.965 1.516 1.797.021a7.7 7.7 0 0 1 1.048.083l.047.007c.24.033.583.08.951.011l.108-.02.101-.043c26.128-11.146 45.337-29.415 55.302-56.171 2.568-6.842 3.287-14.191 2.388-21.601-1.805-16.033-13.428-28.501-29.312-31.607-8.157-1.642-16.375-1.826-24.311 1.755l-.426.192-.126.45-.724 2.643c-.763 2.813-1.503 5.54-2.451 8.097-2.003 5.324-5.464 9.347-10.901 11.36l-.011.004-.011.004c-4.058 1.61-7.401.939-8.81-.899-2.051-2.674-1.67-5.81.222-8.287l.001-.002c2.874-3.778 6.238-7.243 9.718-10.451 1.776-1.613 3.923-2.92 6.103-4.245l1.539-.943.481-.299-.009-.566c-.123-7.816-3.635-13.924-9.462-17.544-5.797-3.601-13.77-4.673-22.75-2.714l-.518.113-.197.492-.406 1.017c-.678 1.703-1.366 3.43-2.132 5.059-3.552 7.094-8.963 12.04-16.827 13.631-3.052.611-5.834.473-7.722-2.113-1.31-1.83-1.077-4.957 1.377-8.141 4.032-5.069 9.511-8.324 15.432-11.064 2.123-.904 4.218-1.795 6.292-2.557l.641-.236.014-.683c.238-11.818-4.342-22.599-11.771-29.625-7.096-6.71-16.792-9.984-27.275-7.426l.13-.689c.135-.637.266-.941.387-1.085.225-.23.61-.445 1.149-.614.53-.166 1.128-.262 1.683-.309 11.213-.558 21.013 2.098 28.163 10.976h0l.005.006c5.486 6.702 8.762 14.41 10.489 22.988l.003.016c.226 1.18.462 2.41.825 3.664.036.227.135.395.195.484a1.99 1.99 0 0 0 .259.3c.06.059.132.125.201.189l.04.037.291.276.281.275.393.01c.408.01.839.04 1.315.073l.597.04c.701.045 1.468.08 2.257.046 8.856-.172 15.219 1.212 20.081 4.641s8.388 9.022 11.316 17.607l.279.819.851-.159 1.612-.284c1.207-.207 2.517-.431 3.749-.718 10.34-1.97 20.233-.881 29.778 3.779l.002.001c15.513 7.53 24.126 22.765 22.9 40.477v.002c-.656 9.674-3.577 18.662-8.285 27.172-11.521 20.617-27.837 35.817-50.341 44.16l-.031.011-.03.013c-.53.237-1.092.442-1.694.662l-.017.006c-.585.213-1.21.44-1.81.709l-.104.046-.091.069c-.198.149-.349.34-.476.513a29.33 29.33 0 0 0-.559.8l-.719 1.048 1.187.452c4.102 1.564 8.146 1.847 12.009 2.118l1.044.074c2.572.265 5.231.436 7.954.611l3.59.238c-.36.835-.817 1.408-1.321 1.821-.719.589-1.618.926-2.696 1.149l-1.9.322c-2.098.369-4.048.713-5.954.551-7.094-.697-14.276-1.54-21.378-2.897-2.683-.556-3.939-1.537-4.346-2.535-.401-.981-.166-2.449 1.313-4.457l20.274-26.628c.79-1.004 1.681-1.839 2.796-2.883l.336-.315c.385.89.41 1.595.294 2.187-.173.881-.671 1.651-1.281 2.595l-.002.003c-4.63 6.54-8.865 13.131-13.438 20.316zM42.748 62.142l-.913 1.507 1.762.011c4.779.029 8.906-1.246 12.048-3.635 3.148-2.394 5.246-5.861 6.031-10.092l.356-1.918-1.765.83-.796.374c-6.244 2.929-12.429 5.83-16.724 12.923zm41.448 26.355l-.488 1.461 1.533-.149c4.164-.403 7.502-1.847 9.835-4.345s3.554-5.936 3.705-10.128l.068-1.889-1.6 1.006c-5.539 3.484-10.685 6.961-13.053 14.043z" fill="#2f5b0c" stroke="#ffbf2d" stroke-width="2"/></g><defs><clipPath id="A"><path fill="#fff" transform="matrix(.990936 .134332 -.134332 .990936 24.2681 .620117)" d="M0 0h154v178H0z"/></clipPath></defs></svg>
